X:1
T:Title
%%score { 1 | 2 }
L:1/8
M:3/4
K:Eb
V:1 treble nm="Grand Piano"
V:2 bass 
V:1
 z2 z2[Q:1/4=96] B2 | B3 B =AB | G4 B2 | [Ec]3 [Ec] [Ed][Ec] |[M:2/4] B4 |[M:1/4] B2 | %6
[M:3/4] A3 A [EG][DF] | GA B2 G2 | F3 B =Ac |[M:2/4] [DB]4 |[M:1/4] [DB]2 |[M:3/4] B3 B =AB | %12
 G4 [GB]2 | [Ge]3 [EG] [EA][Ec] |[M:2/4] B4 |[M:1/4] B2 |[M:3/4] c3 c [Ad][Ad] | %17
 [Ge][FB] [EB]2 [CFA]2 | [B,EG]3 [G,B,E] [A,CE][A,DF] |[M:2/4] [G,E]4 |] %20
V:2
 z2 z2 [E,G,E]2 | [E,G,E]3 [E,G,E] [E,_G,E][E,=G,E] | [E,B,E]4 [E,G,E]2 | %3
 [A,,A,]3 [A,,A,] [A,,B,][A,,A,] |[M:2/4] [E,G,E]4 |[M:1/4] [G,B,E]2 | %6
[M:3/4] [F,B,D]3 [F,B,D] [B,,B,][B,,B,] | [E,B,E][F,B,D] [G,B,E]2 [E,B,E]2 | %8
 [F,B,D]3 [F,B,D] [F,CE][F,=A,E] |[M:2/4] [B,,B,]4 |[M:1/4] [B,,A,]2 | %11
[M:3/4] [E,G,E]3 [E,G,E] [E,_G,E][E,=G,E] | [E,B,E]4 [E,B,]2 | [E,B,]3 [_D,B,] [C,A,][A,,A,] | %14
[M:2/4] [E,G,E]4 |[M:1/4] [E,G,E]2 |[M:3/4] [A,E]3 [A,E] [F,B,][F,B,] | [E,B,][E,A,] [E,G,]2 A,,2 | %18
 B,,3 B,, B,,B,, |[M:2/4] E,4 |] %20

